src/assets/skills/angular-material.svg

<svg height="100pt" viewBox="0 0 100 100" width="100pt" xmlns="http://www.w3.org/2000/svg"><path d="m49.896 0h-49.896v100h49.896l39.44-21.951 7.161-61.443z" fill="#ffa726"/><path d="m49.896 0v11.105 50.493 38.402h50.104v-100z" fill="#fb8c00"/><path d="m56.902 75.921-32.849-15.828 18.838-11.624 33.056 15.88z" fill="#ffe0b2"/><path d="m56.902 63.726-32.849-15.88 18.838-11.572 33.056 15.88z" fill="#fff3e0"/><path d="m56.902 51.531-32.849-15.88 18.838-11.624 33.056 15.88z" fill="#fff"/></svg>

<?xml version="1.0" encoding="UTF-8" standalone="no"?><!-- Generator: Gravit.io --><svg xmlns="http://www.w3.org/2000/svg" xmlns:xlink="http://www.w3.org/1999/xlink" style="isolation:isolate" viewBox="0 0 100 100" width="100pt" height="100pt"><g><g><path d=" M 49.896 0 L 49.896 0 L 49.896 0 L 0 0 L 0 100 L 49.896 100 L 49.896 100 L 49.896 100 L 89.336 78.049 L 96.497 16.606 L 49.896 0 L 49.896 0 Z " fill="rgb(255,167,38)"/><path d=" M 49.896 0 L 49.896 11.105 L 49.896 11.105 L 49.896 61.598 L 49.896 61.598 L 49.896 100 L 49.896 100 L 100 100 L 100 0 L 49.896 0 L 49.896 0 Z " fill="rgb(251,140,0)"/><path d=" M 56.902 75.921 L 24.053 60.093 L 42.891 48.469 L 75.947 64.349 L 56.902 75.921 L 56.902 75.921 Z " fill="rgb(255,224,178)"/><path d=" M 56.902 63.726 L 24.053 47.846 L 42.891 36.274 L 75.947 52.154 L 56.902 63.726 L 56.902 63.726 Z " fill="rgb(255,243,224)"/><path d=" M 56.902 51.531 L 24.053 35.651 L 42.891 24.027 L 75.947 39.907 L 56.902 51.531 L 56.902 51.531 Z " fill="rgb(255,255,255)"/></g></g></svg>
